static/img/patterns/components/line.svg

<?xml version="1.0" encoding="UTF-8"?>
<svg width="172px" height="81px" viewBox="0 0 172 81" version="1.1" xmlns="http://www.w3.org/2000/svg" xmlns:xlink="http://www.w3.org/1999/xlink">
    <!-- Generator: Sketch 49.1 (51147) - http://www.bohemiancoding.com/sketch -->
    <title>line</title>
    <desc>Created with Sketch.</desc>
    <defs>
        <linearGradient x1="0%" y1="49.9924863%" x2="100.035883%" y2="49.9924863%" id="linearGradient-1">
            <stop stop-color="#6E718F" offset="0%"></stop>
            <stop stop-color="#6E718F" offset="99.44%"></stop>
        </linearGradient>
        <linearGradient x1="0.798553993%" y1="49.49%" x2="101.156911%" y2="49.49%" id="linearGradient-2">
            <stop stop-color="#6E718F" offset="0%"></stop>
            <stop stop-color="#6E718F" offset="99.44%"></stop>
        </linearGradient>
        <linearGradient x1="47.2551651%" y1="33.906896%" x2="72.4247753%" y2="81.2221136%" id="linearGradient-3">
            <stop stop-color="#27283A" offset="0%"></stop>
            <stop stop-color="#27283A" stop-opacity="0" offset="100%"></stop>
        </linearGradient>
    </defs>
    <g id="Page-1" stroke="none" stroke-width="1" fill="none" fill-rule="evenodd" opacity="0.147814764">
        <g id="Landing-page" transform="translate(-1367.000000, -1917.000000)">
            <g id="background" transform="translate(-1054.000000, -474.000000)">
                <g id="graphics" transform="translate(990.000000, 1434.000000)">
                    <g id="line" transform="translate(1515.880824, 998.623155) rotate(-94.000000) translate(-1515.880824, -998.623155) translate(1471.380824, 913.623155)">
                        <path d="M60.1740305,22.7606595 C54.482792,22.7606595 49.8565806,27.3984026 49.8565806,33.1038274 C49.8565806,37.2077295 52.2528915,40.7777907 55.7475116,42.4460436 L1.76395111,166.297138 L1.76395111,166.330503 C1.66410482,166.297138 1.59754063,166.297138 1.49769434,166.297138 C0.66564193,166.297138 0,166.964439 0,167.798566 C0,168.632692 0.66564193,169.299993 1.49769434,169.299993 C2.32974675,169.299993 2.99538868,168.632692 2.99538868,167.798566 C2.99538868,167.29809 2.76241401,166.864344 2.39631095,166.597423 L56.3465894,42.7463291 C57.5447448,43.2134399 58.8094645,43.4803604 60.1740305,43.4803604 C65.865269,43.4803604 70.4914804,38.8426174 70.4914804,33.1371925 C70.4914804,27.4317676 65.8985511,22.7606595 60.1740305,22.7606595 Z M60.1740305,42.8130592 C54.848895,42.8130592 50.5222225,38.4756017 50.5222225,33.1371925 C50.5222225,27.7987833 54.848895,23.4613258 60.1740305,23.4613258 C65.4991659,23.4613258 69.8258384,27.7987833 69.8258384,33.1371925 C69.8258384,38.4756017 65.4991659,42.8130592 60.1740305,42.8130592 Z" id="Shape" fill="url(#linearGradient-1)" fill-rule="nonzero"></path>
                        <path d="M60.1740305,31.6357649 C59.3419781,31.6357649 58.6763361,32.3030661 58.6763361,33.1371925 C58.6763361,33.6376684 58.9093108,34.0714141 59.2754139,34.3383346 L59.2421318,34.3716996 L59.8412095,34.6386201 L59.8744916,34.605255 C59.9743379,34.605255 60.0409021,34.6386201 60.1407484,34.6386201 C60.9728008,34.6386201 61.6384427,33.9713189 61.6384427,33.1371925 C61.6717248,32.3030661 61.0060829,31.6357649 60.1740305,31.6357649 Z" id="Shape" fill="url(#linearGradient-2)" fill-rule="nonzero"></path>
                        <polygon id="Rectangle-8" fill="url(#linearGradient-3)" points="34.483525 0.557071849 83.5544831 3.41409893 88.1784076 84.0534133 27.0932873 69.5078532"></polygon>
                    </g>
                </g>
            </g>
        </g>
    </g>
</svg>

<svg width="172" height="81" xmlns="http://www.w3.org/2000/svg"><defs><linearGradient x1="0%" y1="49.992%" x2="100.036%" y2="49.992%" id="a"><stop stop-color="#6E718F" offset="0%"/><stop stop-color="#6E718F" offset="99.44%"/></linearGradient><linearGradient x1=".799%" y1="49.49%" x2="101.157%" y2="49.49%" id="b"><stop stop-color="#6E718F" offset="0%"/><stop stop-color="#6E718F" offset="99.44%"/></linearGradient><linearGradient x1="47.255%" y1="33.907%" x2="72.425%" y2="81.222%" id="c"><stop stop-color="#27283A" offset="0%"/><stop stop-color="#27283A" stop-opacity="0" offset="100%"/></linearGradient></defs><g fill="none" fill-rule="evenodd" opacity=".148"><path d="M60.174 22.76c-5.691 0-10.317 4.638-10.317 10.344 0 4.104 2.396 7.674 5.89 9.342L1.765 166.297v.034c-.1-.034-.166-.034-.266-.034-.832 0-1.498.667-1.498 1.502 0 .834.666 1.501 1.498 1.501s1.497-.667 1.497-1.501c0-.5-.233-.935-.599-1.202l53.95-123.85a10.42 10.42 0 0 0 3.828.733c5.691 0 10.317-4.637 10.317-10.343 0-5.705-4.592-10.376-10.317-10.376zm0 20.053c-5.325 0-9.652-4.337-9.652-9.676 0-5.338 4.327-9.676 9.652-9.676 5.325 0 9.652 4.338 9.652 9.676 0 5.339-4.327 9.676-9.652 9.676z" fill="url(#a)" fill-rule="nonzero" transform="rotate(-94 44.466 44.484)"/><path d="M60.174 31.636c-.832 0-1.498.667-1.498 1.501 0 .5.233.934.6 1.201l-.034.034.6.267.032-.034c.1 0 .167.034.267.034.832 0 1.497-.668 1.497-1.502a1.445 1.445 0 0 0-1.464-1.501z" fill="url(#b)" fill-rule="nonzero" transform="rotate(-94 44.466 44.484)"/><path fill="url(#c)" d="M34.484.557l49.07 2.857 4.624 80.64-61.085-14.546z" transform="rotate(-94 44.466 44.484)"/></g></svg>
